X: 3797
T: Björn's
R: polka
M: 2/4
K: Gmajor
|:[G/B/][A/c/]|[Bd][G/B/][A/c/] [Bd][G/B/][A/c/]|[Bd][GB] [DG][G/B/][A/c/]|[Bd][G/B/][A/c/] [Bd][Bg]|[A2f2] [Af][A/f/][B/g/]|
[ca][A/f/][B/g/] [ca][A/f/][B/g/]|[ca][Af] [Fd][F/d/][G/e/]|[Fd][Ec] [DB][CA]|1 [B,2G2] [B,G]:|2 [B,G][Gg] [Af][B=f]||
|:[c2e2] [G2c2]|[EG][cg] [df][ce]|[B2d2] [G2B2]|[DG][Bg] [Af][Bg]|
[c2a2] [A2f2]|[Fd][da] [e^g][fa]|[g2b2] [d2g2]|[Bd][Gg] [Af][B=f]|
[c2e2] [G2c2]|[EG][cg] [df][ce]|[B2d2] [G2B2]|[DG][Bg] [Af][Ge]|
[F2d2] [E2c2]|[C2E2] [D2F2]|[B,G]>[CA] [B,G][A,F]|1 [BG][Gg] [Af][B=f]:|2 [B,G] [B,G]z||

